!!!SOCIAL_FUNCTION:	songs of the drum-presentation ceremony
!!!PDT:	1913
!!!OTL: No_72_First_Song_of_the_Dog_Feast.krn
!!!REG: Great_Lakes
!!!LANG: Non-Tone
!!!LING_GROUP: Algonquin
**kern	**kern
*staff2	*staff1
*clefF4	*clefF4
*k[]	*k[]
*M2/4	*M2/4
4r	4d\
=1	=1
12GG^/	4e\
12r	.
12GG/	.
12GG^/	4d\
12r	.
12GG/	.
=2	=2
2r	4c\
.	8.c\L
.	16c\Jk
=3	=3
2r	4c\
.	4d\
=4	=4
2r	4e\
.	4d\
=5||	=5||
*M3/4	*M3/4
2.r	4c\
.	8.c\L
.	16c\Jk
.	4c\
=6||	=6||
*M2/4	*M2/4
2r	8c\L
.	8d\J
.	8c\L
.	8c\J
=7	=7
2r	8c\L
.	8A\J
.	8.G\L
.	16G\Jk
=8	=8
2r	8F\L
.	8D\J
.	4C/
=9	=9
2r	16F\LL
.	16F\J
.	8D\J
.	4D\
=10	=10
2r	16C/LK
.	8.C/J
.	16D/LL
.	16D/
.	16.C/
.	32C/JJk
=11	=11
2r	[2C/
=12	=12
2r	4C/]
.	4r
==	==
*-	*-
